;FLAVOR:Marlin
;TIME:508
;Filament used: 0.241658m
;Layer height: 0.2
;MINX:85.2
;MINY:98.768
;MINZ:0.3
;MAXX:134.8
;MAXY:121.242
;MAXZ:7.9
;Generated with Cura_SteamEngine 4.13.1
M140 S65
M105
M190 S65
M104 S205
M105
M109 S205
M82 ;absolute extrusion mode
G28 ;Home
G1 Z15.0 F2000 ;Move the platform
G92 E0
G92 E0
G1 F2700 E-6.5
;LAYER_COUNT:39
;LAYER:0
M107
M204 S1000
G0 F7500 X93.193 Y102.526 Z0.3
;TYPE:SKIRT
G1 F2700 E0
G1 F1500 X93.417 Y102.344 E0.0144
G1 X93.91 Y101.972 E0.04521
G1 X94.632 Y101.538 E0.08724
G1 X95.163 Y101.291 E0.11646
G1 X95.936 Y101.024 E0.15726
G1 X96.52 Y100.887 E0.18718
G1 X96.785 Y100.833 E0.20068
G1 X97.062 Y100.793 E0.21464
G1 X97.976 Y100.691 E0.26052
G1 X100.732 Y100.346 E0.39909
G1 X103.372 Y99.94 E0.53235
G1 X106.083 Y99.444 E0.66985
G1 X108.272 Y98.973 E0.78156
G1 X108.877 Y98.854 E0.81232
G1 X109.568 Y98.78 E0.84699
G1 X110.163 Y98.768 E0.87668
G1 X110.994 Y98.838 E0.91829
G1 X111.57 Y98.948 E0.94754
G1 X111.834 Y99.007 E0.96104
G1 X112.321 Y99.157 E0.98646
G1 X112.729 Y99.313 E1.00825
G1 X113.77 Y99.735 E1.0643
G1 X116.353 Y100.699 E1.20184
G1 X118.007 Y101.273 E1.28919
G1 X118.527 Y101.495 E1.3174
G1 X119.01 Y101.789 E1.34561
G1 X119.424 Y102.126 E1.37224
G1 X119.59 Y102.281 E1.38357
G1 X121.61 Y104.108 E1.51946
G1 X123.689 Y105.884 E1.65587
G1 X125.784 Y107.573 E1.79013
G1 X127.957 Y109.227 E1.92637
G1 X130.184 Y110.823 E2.06306
G1 X132.403 Y112.323 E2.19669
G1 X132.986 Y112.706 E2.23149
G1 X133.436 Y113.049 E2.25972
G1 X133.832 Y113.452 E2.28791
G1 X134.168 Y113.907 E2.31613
G1 X134.436 Y114.404 E2.3443
G1 X134.632 Y114.935 E2.37254
G1 X134.75 Y115.487 E2.4007
G1 X134.788 Y115.925 E2.42263
G1 X134.798 Y116.248 E2.43875
G1 X134.8 Y116.414 E2.44704
G1 X134.791 Y117.275 E2.48999
G1 X134.745 Y117.838 E2.51818
G1 X134.62 Y118.39 E2.54641
G1 X134.419 Y118.918 E2.5746
G1 X134.145 Y119.413 E2.60283
G1 X133.804 Y119.864 E2.63103
G1 X133.403 Y120.262 E2.65922
G1 X132.95 Y120.6 E2.68742
G1 X132.454 Y120.871 E2.71562
G1 X131.924 Y121.069 E2.74384
G1 X131.372 Y121.191 E2.77205
G1 X130.903 Y121.231 E2.79553
G1 X130.47 Y121.242 E2.81714
G1 X89.855 Y121.242 E4.84343
G1 X89.157 Y121.233 E4.87826
G1 X88.594 Y121.185 E4.90645
G1 X88.043 Y121.059 E4.93465
G1 X87.515 Y120.857 E4.96285
G1 X87.021 Y120.582 E4.99106
G1 X86.571 Y120.24 E5.01926
G1 X86.173 Y119.838 E5.04748
G1 X85.837 Y119.384 E5.07566
G1 X85.567 Y118.887 E5.10388
G1 X85.37 Y118.357 E5.13208
G1 X85.25 Y117.805 E5.16027
G1 X85.21 Y117.341 E5.1835
G1 X85.201 Y117.008 E5.20012
G1 X85.2 Y116.731 E5.21394
G1 X85.212 Y115.978 E5.25151
G1 X85.26 Y115.415 E5.2797
G1 X85.388 Y114.864 E5.30792
G1 X85.593 Y114.337 E5.33614
G1 X85.931 Y113.752 E5.36984
G1 X86.203 Y113.363 E5.39352
G1 X87.733 Y111.096 E5.52997
G1 X89.19 Y108.8 E5.66564
G1 X90.583 Y106.46 E5.8015
G1 X91.491 Y104.852 E5.89363
G1 X91.894 Y104.12 E5.93532
G1 X91.993 Y103.95 E5.94513
G1 X92.398 Y103.388 E5.9797
G1 X92.795 Y102.927 E6.01005
G1 X93.193 Y102.526 E6.03823
G0 F7500 X93.658 Y102.663
G1 F1500 X94.151 Y102.291 E6.06905
G1 X94.801 Y101.901 E6.10686
G1 X95.332 Y101.654 E6.13608
G1 X96.028 Y101.413 E6.17283
G1 X96.612 Y101.276 E6.20276
G1 X96.857 Y101.227 E6.21522
G1 X97.106 Y101.19 E6.22778
G1 X98.066 Y101.083 E6.27597
G1 X100.776 Y100.744 E6.41223
G1 X103.468 Y100.33 E6.54811
G1 X106.149 Y99.84 E6.68408
G1 X108.349 Y99.366 E6.79636
G1 X108.954 Y99.247 E6.82712
G1 X109.576 Y99.18 E6.85833
G1 X110.171 Y99.168 E6.88802
G1 X110.919 Y99.231 E6.92547
G1 X111.495 Y99.341 E6.95473
G1 X111.741 Y99.396 E6.9673
G1 X112.179 Y99.531 E6.99017
G1 X112.578 Y99.684 E7.01149
G1 X113.616 Y100.105 E7.06737
G1 X116.208 Y101.073 E7.20541
G1 X117.876 Y101.651 E7.29348
G1 X118.368 Y101.864 E7.32023
G1 X118.823 Y102.148 E7.34699
G1 X119.151 Y102.419 E7.36822
G1 X119.288 Y102.547 E7.37757
G1 X121.346 Y104.408 E7.516
G1 X123.444 Y106.201 E7.65369
G1 X125.553 Y107.902 E7.78886
G1 X127.71 Y109.543 E7.92408
G1 X129.925 Y111.131 E8.06005
G1 X132.184 Y112.657 E8.19606
G1 X132.767 Y113.04 E8.23086
G1 X133.192 Y113.367 E8.25761
G1 X133.563 Y113.754 E8.28436
G1 X133.874 Y114.191 E8.31112
G1 X134.115 Y114.67 E8.33787
G1 X134.283 Y115.179 E8.36461
G1 X134.388 Y115.938 E8.40284
G1 X134.398 Y116.261 E8.41896
G1 X134.4 Y116.41 E8.42639
G1 X134.391 Y117.271 E8.46935
G1 X134.345 Y117.805 E8.49609
G1 X134.221 Y118.327 E8.52286
G1 X134.02 Y118.824 E8.54961
G1 X133.748 Y119.286 E8.57635
G1 X133.41 Y119.703 E8.60313
G1 X133.014 Y120.064 E8.62987
G1 X132.569 Y120.363 E8.65661
G1 X132.084 Y120.593 E8.68339
G1 X131.571 Y120.747 E8.71012
G1 X130.892 Y120.832 E8.74426
G1 X130.47 Y120.842 E8.76532
G1 X89.861 Y120.842 E10.79131
G1 X89.163 Y120.833 E10.82613
G1 X88.628 Y120.786 E10.85293
G1 X88.107 Y120.66 E10.87967
G1 X87.61 Y120.458 E10.90643
G1 X87.149 Y120.185 E10.93316
G1 X86.733 Y119.846 E10.95994
G1 X86.372 Y119.45 E10.98667
G1 X86.074 Y119.004 E11.01343
G1 X85.846 Y118.518 E11.04021
G1 X85.693 Y118.004 E11.06697
G1 X85.61 Y117.33 E11.10085
G1 X85.6 Y116.9 E11.12231
G1 X85.6 Y116.674 E11.13358
G1 X85.611 Y115.985 E11.16796
G1 X85.66 Y115.45 E11.19477
G1 X85.787 Y114.929 E11.22152
G1 X85.99 Y114.433 E11.24826
G1 X86.259 Y113.981 E11.2745
G1 X86.548 Y113.567 E11.29969
G1 X88.06 Y111.329 E11.43444
G1 X89.539 Y108.998 E11.57216
G1 X90.937 Y106.65 E11.7085
G1 X91.84 Y105.049 E11.8002
G1 X92.245 Y104.313 E11.84211
G1 X92.337 Y104.155 E11.85123
G1 X92.701 Y103.649 E11.88233
G1 X93.098 Y103.188 E11.91268
G1 X93.658 Y102.663 E11.95098
G0 F7500 X93.899 Y102.983
G1 F1500 X94.392 Y102.611 E11.98179
G1 X94.969 Y102.264 E12.01538
G1 X95.5 Y102.017 E12.0446
G1 X96.119 Y101.803 E12.07728
G1 X96.703 Y101.666 E12.1072
G1 X97.151 Y101.588 E12.12989
G1 X98.083 Y101.484 E12.17668
G1 X100.81 Y101.143 E12.31379
G1 X103.535 Y100.724 E12.45133
G1 X106.239 Y100.229 E12.58848
G1 X108.426 Y99.758 E12.70009
G1 X109.031 Y99.639 E12.73085
G1 X109.584 Y99.58 E12.7586
G1 X110.179 Y99.568 E12.78829
G1 X110.844 Y99.624 E12.82158
G1 X111.42 Y99.734 E12.85084
G1 X111.647 Y99.785 E12.86245
G1 X112.037 Y99.905 E12.88281
G1 X112.428 Y100.055 E12.9037
G1 X113.474 Y100.479 E12.96001
G1 X116.064 Y101.446 E13.09794
G1 X117.745 Y102.029 E13.1867
G1 X118.208 Y102.232 E13.21192
G1 X118.633 Y102.505 E13.23712
G1 X118.878 Y102.711 E13.25309
G1 X119.039 Y102.861 E13.26407
G1 X121.083 Y104.709 E13.40155
G1 X123.179 Y106.501 E13.53913
G1 X125.305 Y108.215 E13.67537
G1 X127.481 Y109.87 E13.81176
G1 X129.698 Y111.46 E13.94787
G1 X131.999 Y113.015 E14.08643
G1 X132.547 Y113.375 E14.11914
G1 X132.946 Y113.685 E14.14435
G1 X133.292 Y114.054 E14.16958
G1 X133.575 Y114.473 E14.19481
G1 X133.788 Y114.931 E14.22001
G1 X133.927 Y115.417 E14.24523
G1 X133.988 Y115.95 E14.27199
G1 X133.998 Y116.273 E14.28811
G1 X134 Y116.405 E14.2947
G1 X133.991 Y117.266 E14.33766
G1 X133.946 Y117.77 E14.3629
G1 X133.822 Y118.26 E14.38812
G1 X133.622 Y118.725 E14.41337
G1 X133.352 Y119.152 E14.43858
G1 X133.018 Y119.531 E14.46378
G1 X132.628 Y119.853 E14.48901
G1 X132.192 Y120.11 E14.51426
G1 X131.722 Y120.295 E14.53946
G1 X131.228 Y120.403 E14.56469
G1 X130.881 Y120.432 E14.58206
G1 X130.47 Y120.442 E14.60257
G1 X89.866 Y120.442 E16.62832
G1 X89.168 Y120.433 E16.66314
G1 X88.664 Y120.386 E16.6884
G1 X88.174 Y120.261 E16.71363
G1 X87.71 Y120.06 E16.73885
G1 X87.284 Y119.789 E16.76404
G1 X86.905 Y119.454 E16.78928
G1 X86.584 Y119.063 E16.81452
G1 X86.329 Y118.627 E16.83972
G1 X86.145 Y118.156 E16.86494
G1 X86.038 Y117.662 E16.89016
G1 X86.01 Y117.319 E16.90733
G1 X86 Y116.9 E16.92824
G1 X86 Y116.68 E16.93922
G1 X86.011 Y115.991 E16.97359
G1 X86.059 Y115.488 E16.9988
G1 X86.186 Y114.998 E17.02406
G1 X86.388 Y114.535 E17.04926
G1 X86.587 Y114.21 E17.06827
G1 X86.876 Y113.796 E17.09346
G1 X88.412 Y111.521 E17.23041
G1 X89.877 Y109.211 E17.36688
G1 X91.26 Y106.889 E17.50171
G1 X92.188 Y105.245 E17.5959
G1 X92.649 Y104.411 E17.64344
G1 X92.68 Y104.359 E17.64646
G1 X93.004 Y103.91 E17.67408
G1 X93.401 Y103.449 E17.70444
G1 X93.899 Y102.983 E17.73846
G1 F2700 E11.23846
;MESH:arduino_uno_lcd_orig-buttons.stl
G0 F7500 X98.902 Y104.248
G0 X99.49 Y104.51
G0 X99.089 Y105.409
G0 X100.359 Y107.642
G0 X99.076 Y109.86
G0 X98.069 Y110.195
G0 X98.072 Y116.37
G0 X115.828 Y116.37
G0 X115.828 Y105.914
G0 X112.596 Y105.91
G0 X110.975 Y107.857
G0 X108.85 Y107.63
;TYPE:WALL-INNER
G1 F2700 E17.73846
G1 F1500 X108.463 Y107.348 E17.76235
G1 X108.144 Y106.995 E17.78609
G1 X107.901 Y106.573 E17.81038
G1 X107.754 Y106.122 E17.83405
G1 X107.703 Y105.642 E17.85813
G1 X107.754 Y105.162 E17.88221
G1 X107.902 Y104.71 E17.90594
G1 X108.142 Y104.291 E17.93003
G1 X108.46 Y103.939 E17.9537
G1 X108.855 Y103.652 E17.97806
G1 X109.29 Y103.458 E18.00182
G1 X109.761 Y103.358 E18.02584
G1 X110.239 Y103.358 E18.04969
G1 X110.71 Y103.458 E18.07371
G1 X111.145 Y103.652 E18.09748
G1 X111.54 Y103.939 E18.12184
G1 X111.856 Y104.289 E18.14536
G1 X112.099 Y104.711 E18.16966
G1 X112.401 Y105.642 E18.21849
G1 X112.099 Y106.573 E18.26732
G1 X111.856 Y106.995 E18.29161
G1 X111.537 Y107.348 E18.31535
G1 X111.15 Y107.63 E18.33924
G1 X110.708 Y107.826 E18.36336
G1 X110.239 Y107.926 E18.38728
G1 X109.761 Y107.926 E18.41113
G1 X109.292 Y107.826 E18.43506
G1 X108.85 Y107.63 E18.45918
G1 F2700 E11.95918
G0 F7500 X111.276 Y107.86
G0 X112.596 Y105.91
G0 X115.828 Y105.914
G0 X115.828 Y116.37
G0 X98.072 Y116.37
G0 X98.069 Y110.195
G0 X99.338 Y109.347
G1 F2700 E18.45918
G1 F1500 X98.947 Y109.631 E18.48329
G1 X98.509 Y109.826 E18.50721
G1 X97.8 Y109.977 E18.54337
G1 X97.091 Y109.826 E18.57954
G1 X96.653 Y109.631 E18.60346
G1 X96.262 Y109.347 E18.62757
G1 X95.94 Y108.991 E18.65152
G1 X95.702 Y108.575 E18.67543
G1 X95.554 Y108.122 E18.6992
G1 X95.503 Y107.642 E18.72329
G1 X95.554 Y107.162 E18.74737
G1 X95.702 Y106.71 E18.7711
G1 X95.941 Y106.293 E18.79508
G1 X96.264 Y105.935 E18.81913
G1 X96.652 Y105.653 E18.84306
G1 X97.089 Y105.458 E18.86693
G1 X97.561 Y105.358 E18.89101
G1 X98.039 Y105.358 E18.91485
G1 X98.511 Y105.458 E18.93892
G1 X98.948 Y105.653 E18.9628
G1 X99.336 Y105.935 E18.98673
G1 X99.659 Y106.293 E19.01078
G1 X99.898 Y106.71 E19.03476
G1 X100.046 Y107.162 E19.05849
G1 X100.097 Y107.642 E19.08257
G1 X100.046 Y108.122 E19.10666
G1 X99.898 Y108.575 E19.13043
G1 X99.66 Y108.991 E19.15434
G1 X99.338 Y109.347 E19.17829
G0 F7500 X98.069 Y110.195
G0 X98.072 Y116.37
G0 X103.628 Y116.37
G0 X103.628 Y112.07
G0 X107.404 Y112.61
G0 X108.144 Y113.695
G1 F1500 X107.901 Y113.273 E19.20259
G1 X107.599 Y112.342 E19.25142
G1 X107.901 Y111.411 E19.30025
G1 X108.144 Y110.989 E19.32454
G1 X108.46 Y110.639 E19.34807
G1 X108.855 Y110.352 E19.37243
G1 X109.29 Y110.158 E19.39619
G1 X109.761 Y110.058 E19.42021
G1 X110.239 Y110.058 E19.44406
G1 X110.71 Y110.158 E19.46808
G1 X111.145 Y110.352 E19.49184
G1 X111.54 Y110.639 E19.5162
G1 X111.858 Y110.991 E19.53987
G1 X112.098 Y111.41 E19.56396
G1 X112.246 Y111.862 E19.58769
G1 X112.297 Y112.342 E19.61177
G1 X112.246 Y112.822 E19.63585
G1 X112.099 Y113.273 E19.65952
G1 X111.856 Y113.695 E19.68381
G1 X111.537 Y114.048 E19.70755
G1 X111.15 Y114.33 E19.73144
G1 X110.708 Y114.526 E19.75556
G1 X110.239 Y114.626 E19.77949
G1 X109.761 Y114.626 E19.80333
G1 X109.292 Y114.526 E19.82726
G1 X108.85 Y114.33 E19.85138
G1 X108.463 Y114.048 E19.87527
G1 X108.144 Y113.695 E19.89901
G1 F2700 E13.39901
G0 F7500 X107.404 Y112.61
G0 X104.172 Y112.614
G0 X104.1 Y116.242
G1 F2700 E19.89901
G0 F7500 X104.3 Y116.242
;TYPE:WALL-OUTER
G1 F1500 X115.7 Y116.242 E20.46775
G1 X115.7 Y106.042 E20.97663
G1 X112.692 Y106.042 E21.1267
G1 X112.465 Y106.74 E21.16332
G1 X112.183 Y107.23 E21.19153
G1 X111.808 Y107.645 E21.21943
G1 X111.348 Y107.98 E21.24782
G1 X110.835 Y108.208 E21.27583
G1 X110.28 Y108.326 E21.30414
G1 X109.72 Y108.326 E21.33208
G1 X109.165 Y108.208 E21.36039
G1 X108.652 Y107.98 E21.38839
G1 X108.192 Y107.645 E21.41678
G1 X107.817 Y107.23 E21.44469
G1 X107.535 Y106.74 E21.47289
G1 X107.36 Y106.204 E21.50102
G1 X107.301 Y105.642 E21.52922
G1 X107.36 Y105.08 E21.55741
G1 X107.535 Y104.545 E21.58549
G1 X107.817 Y104.054 E21.61374
G1 X108.192 Y103.639 E21.64165
G1 X108.652 Y103.305 E21.67001
G1 X109.165 Y103.076 E21.69804
G1 X109.72 Y102.958 E21.72634
G1 X110.28 Y102.958 E21.75428
G1 X110.835 Y103.076 E21.78259
G1 X111.348 Y103.305 E21.81062
G1 X111.808 Y103.639 E21.83898
G1 X112.183 Y104.054 E21.86688
G1 X112.465 Y104.544 E21.89509
G1 X112.692 Y105.242 E21.93171
G1 X116.5 Y105.242 E22.12169
G1 X116.5 Y116.242 E22.67048
G1 X130.6 Y116.242 E23.37393
G1 X130.6 Y117.042 E23.41385
G1 X89.4 Y117.042 E25.46932
G1 X89.4 Y116.242 E25.50923
G1 X97.4 Y116.242 E25.90836
G1 X97.4 Y110.301 E26.20475
G1 X96.965 Y110.208 E26.22695
G1 X96.452 Y109.98 E26.25495
G1 X95.994 Y109.647 E26.28321
G1 X95.615 Y109.227 E26.31143
G1 X95.335 Y108.74 E26.33946
G1 X95.16 Y108.204 E26.36759
G1 X95.101 Y107.642 E26.39578
G1 X95.16 Y107.08 E26.42397
G1 X95.335 Y106.545 E26.45205
G1 X95.615 Y106.057 E26.48012
G1 X95.996 Y105.635 E26.50849
G1 X96.449 Y105.306 E26.53642
G1 X96.965 Y105.076 E26.5646
G1 X97.52 Y104.958 E26.59291
G1 X98.08 Y104.958 E26.62085
G1 X98.635 Y105.076 E26.64916
G1 X99.151 Y105.306 E26.67734
G1 X99.604 Y105.635 E26.70528
G1 X99.985 Y106.057 E26.73364
G1 X100.265 Y106.545 E26.76171
G1 X100.44 Y107.08 E26.78979
G1 X100.499 Y107.642 E26.81798
G1 X100.44 Y108.204 E26.84618
G1 X100.265 Y108.74 E26.87431
G1 X99.985 Y109.227 E26.90233
G1 X99.606 Y109.647 E26.93056
G1 X99.148 Y109.98 E26.95881
G1 X98.635 Y110.208 E26.98682
G1 X98.2 Y110.301 E27.00901
G1 X98.2 Y116.242 E27.30541
G1 X103.5 Y116.242 E27.56982
G1 X103.5 Y111.942 E27.78435
G1 X107.308 Y111.942 E27.97433
G1 X107.535 Y111.244 E28.01095
G1 X107.817 Y110.754 E28.03916
G1 X108.192 Y110.339 E28.06706
G1 X108.652 Y110.005 E28.09542
G1 X109.165 Y109.776 E28.12345
G1 X109.72 Y109.658 E28.15176
G1 X110.28 Y109.658 E28.1797
G1 X110.835 Y109.776 E28.20801
G1 X111.348 Y110.005 E28.23603
G1 X111.808 Y110.339 E28.2644
G1 X112.183 Y110.754 E28.2923
G1 X112.465 Y111.245 E28.32055
G1 X112.64 Y111.78 E28.34863
G1 X112.699 Y112.342 E28.37683
G1 X112.64 Y112.904 E28.40502
G1 X112.465 Y113.44 E28.43315
G1 X112.183 Y113.93 E28.46135
G1 X111.808 Y114.345 E28.48926
G1 X111.348 Y114.68 E28.51765
G1 X110.835 Y114.908 E28.54566
G1 X110.28 Y115.026 E28.57396
G1 X109.72 Y115.026 E28.6019
G1 X109.165 Y114.908 E28.63021
G1 X108.652 Y114.68 E28.65822
G1 X108.192 Y114.345 E28.68661
G1 X107.817 Y113.93 E28.71451
G1 X107.535 Y113.44 E28.74272
G1 X107.308 Y112.742 E28.77934
G1 X104.3 Y112.742 E28.92941
G1 X104.3 Y116.242 E29.10402
G0 F7500 X104.5 Y116.242
G0 X104.5 Y116.442
G0 X104.172 Y116.37
G0 X104.172 Y112.614
G0 X107.404 Y112.61
G0 X108.22 Y113.604
G0 X108.462 Y113.465
;TYPE:SKIN
G1 F1500 X108.26 Y113.114 E29.12423
G1 X108.009 Y112.342 E29.16473
G1 X108.26 Y111.57 E29.20523
G1 X108.463 Y111.216 E29.22559
G1 X108.717 Y110.935 E29.24448
G1 X109.057 Y110.689 E29.26542
G1 X109.407 Y110.532 E29.28456
G1 X109.804 Y110.448 E29.3048
G1 X110.196 Y110.448 E29.32436
G1 X110.593 Y110.532 E29.34461
G1 X110.943 Y110.689 E29.36374
G1 X111.283 Y110.935 E29.38468
G1 X111.539 Y111.219 E29.40376
G1 X111.739 Y111.568 E29.42382
G1 X111.862 Y111.945 E29.44361
G1 X111.905 Y112.342 E29.46353
G1 X111.862 Y112.739 E29.48345
G1 X111.74 Y113.113 E29.50308
G1 X111.538 Y113.465 E29.52333
G1 X111.277 Y113.754 E29.54275
G1 X110.952 Y113.991 E29.56282
G1 X110.588 Y114.152 E29.58268
G1 X110.195 Y114.236 E29.60273
G1 X109.805 Y114.236 E29.62219
G1 X109.412 Y114.152 E29.64224
G1 X109.048 Y113.991 E29.66209
G1 X108.723 Y113.754 E29.68216
G1 X108.462 Y113.465 E29.70159
G0 F7500 X108.22 Y113.604
G0 X108.626 Y113.931
G0 X109.382 Y114.432
G0 X109.474 Y114
G1 F1500 X108.35 Y112.876 E29.78089
G0 F7500 X108.226 Y112.186
G1 F1500 X110.115 Y114.075 E29.91417
G0 F7500 X110.583 Y113.977
G1 F1500 X108.364 Y111.758 E30.07073
G0 F7500 X108.55 Y111.379
G1 F1500 X110.957 Y113.786 E30.24056
G0 F7500 X111.266 Y113.528
G1 F1500 X108.808 Y111.07 E30.41399
G0 F7500 X109.133 Y110.83
G1 F1500 X111.505 Y113.202 E30.58134
G0 F7500 X111.672 Y112.804
G1 F1500 X109.537 Y110.668 E30.73202
G0 F7500 X110.042 Y110.607
G1 F1500 X111.74 Y112.306 E30.85185
G0 F7500 X111.537 Y111.537
