;FLAVOR:Marlin
;TIME:14602
;Filament used: 8.26383m
;Layer height: 0.15
;MINX:65.67
;MINY:76.774
;MINZ:0.3
;MAXX:154.33
;MAXY:143.226
;MAXZ:32.7
;Generated with Cura_SteamEngine 4.13.1
M140 S60
M105
M190 S60
M104 S195
M105
M109 S195
M82 ;absolute extrusion mode
G28 ;Home
G1 Z15.0 F2000 ;Move the platform
G92 E0
G92 E0
G1 F2700 E-6.5
;LAYER_COUNT:217
;LAYER:0
M107
M204 S1000
G0 F7500 X66.839 Y77.837 Z0.3
;TYPE:SKIRT
G1 F2700 E0
G1 F1500 X67.16 Y77.575 E0.02067
G1 X67.375 Y77.421 E0.03387
G1 X67.808 Y77.159 E0.05912
G1 X68.462 Y76.918 E0.09389
G1 X68.618 Y76.879 E0.10191
G1 X69.288 Y76.785 E0.13566
G1 X69.58 Y76.776 E0.15024
G1 X69.823 Y76.774 E0.16236
G1 X149.959 Y76.774 E4.16036
G1 X150.658 Y76.784 E4.19524
G1 X151.161 Y76.831 E4.22045
G1 X151.734 Y76.987 E4.25007
G1 X151.985 Y77.081 E4.26344
G1 X152.443 Y77.295 E4.28867
G1 X152.862 Y77.579 E4.31392
G1 X153.217 Y77.91 E4.33813
G1 X153.403 Y78.112 E4.35183
G1 X153.715 Y78.51 E4.37706
G1 X153.961 Y78.952 E4.4023
G1 X154.142 Y79.459 E4.42916
G1 X154.211 Y79.719 E4.44258
G1 X154.302 Y80.217 E4.46784
G1 X154.318 Y80.491 E4.48153
G1 X154.329 Y81.258 E4.5198
G1 X154.33 Y138.754 E7.38829
G1 X154.321 Y139.415 E7.42127
G1 X154.304 Y139.699 E7.43546
G1 X154.28 Y139.932 E7.44715
G1 X154.189 Y140.429 E7.47235
G1 X153.909 Y141.132 E7.51011
G1 X153.79 Y141.351 E7.52254
G1 X153.514 Y141.775 E7.54778
G1 X153.175 Y142.15 E7.573
G1 X152.849 Y142.419 E7.59409
G1 X152.634 Y142.574 E7.60731
G1 X152.202 Y142.836 E7.63252
G1 X151.633 Y143.058 E7.66299
G1 X151.548 Y143.082 E7.6674
G1 X151.052 Y143.18 E7.69262
G1 X150.746 Y143.201 E7.70792
G1 X149.546 Y143.226 E7.7678
G1 X70.038 Y143.225 E11.73447
G1 X69.329 Y143.214 E11.76985
G1 X68.638 Y143.127 E11.8046
G1 X68.554 Y143.107 E11.8089
G1 X67.858 Y142.853 E11.84587
G1 X67.677 Y142.762 E11.85598
G1 X67.244 Y142.5 E11.88122
G1 X66.719 Y142.025 E11.91655
G1 X66.556 Y141.841 E11.92881
G1 X66.251 Y141.437 E11.95406
G1 X66.014 Y140.991 E11.97926
G1 X65.854 Y140.522 E12.00398
G1 X65.785 Y140.256 E12.01769
G1 X65.697 Y139.759 E12.04288
G1 X65.682 Y139.499 E12.05587
G1 X65.671 Y138.696 E12.09593
G1 X65.67 Y81.178 E14.96552
G1 X65.679 Y80.581 E14.99531
G1 X65.696 Y80.304 E15.00915
G1 X65.72 Y80.069 E15.02094
G1 X65.81 Y79.572 E15.04614
G1 X65.979 Y79.095 E15.07138
G1 X66.1 Y78.851 E15.08497
G1 X66.22 Y78.633 E15.09739
G1 X66.498 Y78.211 E15.1226
G1 X66.839 Y77.837 E15.14785
G1 F2700 E8.64785
;MESH:arduino_uno_lcd_orig-bottom.stl
G0 F7500 X68.354 Y79.957
G0 X69.29 Y80.591
G0 X69.479 Y139.425
;TYPE:WALL-INNER
G1 F2700 E15.14785
G1 F1500 X69.471 Y139.391 E15.14959
G1 X69.47 Y80.613 E18.08204
G1 X69.48 Y80.574 E18.08405
G1 X150.518 Y80.574 E22.12705
G1 X150.529 Y80.609 E22.12888
G1 X150.53 Y139.386 E25.06127
G1 X150.517 Y139.426 E25.06337
G1 X69.479 Y139.425 E29.10638
G0 F7500 X69.234 Y139.76
;TYPE:WALL-OUTER
G1 F1500 X69.116 Y139.627 E29.11525
G1 X69.071 Y139.436 E29.12504
G1 X69.07 Y80.566 E32.06207
G1 X69.116 Y80.373 E32.07197
G1 X69.235 Y80.24 E32.08087
G1 X69.405 Y80.174 E32.08997
G1 X150.593 Y80.174 E36.14046
G1 X150.766 Y80.24 E36.1497
G1 X150.884 Y80.373 E36.15857
G1 X150.929 Y80.564 E36.16836
G1 X150.93 Y139.434 E39.10539
G1 X150.884 Y139.627 E39.11529
G1 X150.765 Y139.76 E39.12419
G1 X150.592 Y139.826 E39.13343
G1 X69.406 Y139.825 E43.18382
G1 X69.234 Y139.76 E43.19299
G0 F7500 X69.116 Y139.627
G0 X69.111 Y139.605
G0 X69.539 Y139.386
G0 X69.861 Y139.035
;TYPE:SKIN
G1 F1500 X69.86 Y80.964 E46.09017
G1 X150.139 Y80.964 E50.0953
G1 X150.14 Y139.036 E52.99253
G1 X69.861 Y139.035 E56.99766
G0 F7500 X70.426 Y138.874
G1 F1500 X70.019 Y138.467 E57.02638
G0 F7500 X70.019 Y137.902
G1 F1500 X70.992 Y138.874 E57.09499
G0 F7500 X71.557 Y138.874
G1 F1500 X70.019 Y137.336 E57.20351
G0 F7500 X70.019 Y136.77
G1 F1500 X72.123 Y138.874 E57.35195
G0 F7500 X72.689 Y138.874
G1 F1500 X70.019 Y136.205 E57.5403
G0 F7500 X70.019 Y135.639
G1 F1500 X73.254 Y138.874 E57.76855
G0 F7500 X73.82 Y138.874
G1 F1500 X70.019 Y135.073 E58.03673
G0 F7500 X70.019 Y134.507
G1 F1500 X74.386 Y138.874 E58.34485
G0 F7500 X74.951 Y138.874
G1 F1500 X70.019 Y133.942 E58.69282
G0 F7500 X70.019 Y133.376
G1 F1500 X75.517 Y138.874 E59.08074
G0 F7500 X76.083 Y138.874
G1 F1500 X70.019 Y132.81 E59.50859
G0 F7500 X70.019 Y132.245
G1 F1500 X76.648 Y138.874 E59.9763
G0 F7500 X77.214 Y138.874
G1 F1500 X70.019 Y131.679 E60.48394
G0 F7500 X70.019 Y131.113
G1 F1500 X77.78 Y138.874 E61.03152
G0 F7500 X78.346 Y138.874
G1 F1500 X70.019 Y130.548 E61.619
G0 F7500 X70.019 Y129.982
G1 F1500 X78.911 Y138.874 E62.24638
G0 F7500 X79.477 Y138.874
G1 F1500 X70.019 Y129.416 E62.9137
G0 F7500 X70.019 Y128.851
G1 F1500 X80.043 Y138.874 E63.62091
G0 F7500 X80.608 Y138.874
G1 F1500 X70.019 Y128.285 E64.36802
G0 F7500 X70.019 Y127.719
G1 F1500 X81.174 Y138.874 E65.15506
G0 F7500 X81.74 Y138.874
G1 F1500 X70.019 Y127.154 E65.98201
G0 F7500 X70.019 Y126.588
G1 F1500 X82.305 Y138.874 E66.84885
G0 F7500 X82.871 Y138.874
G1 F1500 X70.019 Y126.022 E67.75563
G0 F7500 X70.019 Y125.457
G1 F1500 X83.437 Y138.874 E68.70231
G0 F7500 X84.002 Y138.874
G1 F1500 X70.019 Y124.891 E69.68888
G0 F7500 X70.019 Y124.325
G1 F1500 X84.568 Y138.874 E70.71539
G0 F7500 X85.134 Y138.874
G1 F1500 X70.019 Y123.759 E71.78184
G0 F7500 X70.019 Y123.194
G1 F1500 X85.699 Y138.874 E72.88815
G0 F7500 X86.265 Y138.874
G1 F1500 X70.019 Y122.628 E74.03439
G0 F7500 X70.019 Y122.062
G1 F1500 X86.831 Y138.874 E75.22057
G0 F7500 X87.396 Y138.874
G1 F1500 X70.019 Y121.497 E76.44661
G0 F7500 X70.019 Y120.931
G1 F1500 X87.962 Y138.874 E77.71259
G0 F7500 X88.528 Y138.874
G1 F1500 X70.019 Y120.365 E79.0185
G0 F7500 X70.019 Y119.8
G1 F1500 X89.094 Y138.874 E80.3643
G0 F7500 X89.659 Y138.874
G1 F1500 X70.019 Y119.234 E81.75001
G0 F7500 X70.019 Y118.668
G1 F1500 X90.225 Y138.874 E83.17565
G0 F7500 X90.791 Y138.874
G1 F1500 X70.019 Y118.103 E84.6412
G0 F7500 X70.019 Y117.537
G1 F1500 X91.356 Y138.874 E86.14664
G0 F7500 X91.922 Y138.874
G1 F1500 X70.019 Y116.971 E87.69201
G0 F7500 X70.019 Y116.406
G1 F1500 X92.488 Y138.874 E89.27729
G0 F7500 X93.053 Y138.874
G1 F1500 X70.019 Y115.84 E90.90246
G0 F7500 X70.019 Y115.274
G1 F1500 X93.619 Y138.874 E92.56757
G0 F7500 X94.185 Y138.874
G1 F1500 X70.019 Y114.708 E94.27261
G0 F7500 X70.019 Y114.143
G1 F1500 X94.75 Y138.874 E96.01751
G0 F7500 X95.316 Y138.874
G1 F1500 X70.019 Y113.577 E97.80235
G0 F7500 X70.019 Y113.011
G1 F1500 X95.882 Y138.874 E99.62713
G0 F7500 X96.447 Y138.874
G1 F1500 X70.019 Y112.446 E101.49177
G0 F7500 X70.019 Y111.88
G1 F1500 X97.014 Y138.875 E103.39641
G0 F7500 X97.58 Y138.875
G1 F1500 X70.019 Y111.314 E105.34099
G0 F7500 X70.019 Y110.749
G1 F1500 X98.145 Y138.875 E107.32543
G0 F7500 X98.711 Y138.875
G1 F1500 X70.019 Y110.183 E109.3498
G0 F7500 X70.019 Y109.617
G1 F1500 X99.277 Y138.875 E111.41411
G0 F7500 X99.842 Y138.875
G1 F1500 X70.019 Y109.052 E113.51829
G0 F7500 X70.019 Y108.486
G1 F1500 X100.408 Y138.875 E115.6624
G0 F7500 X100.974 Y138.875
G1 F1500 X70.019 Y107.92 E117.84644
G0 F7500 X70.019 Y107.355
G1 F1500 X101.539 Y138.875 E120.07034
G0 F7500 X102.105 Y138.875
G1 F1500 X70.019 Y106.789 E122.33418
G0 F7500 X70.019 Y106.223
G1 F1500 X102.671 Y138.875 E124.63796
G0 F7500 X103.236 Y138.875
G1 F1500 X70.019 Y105.658 E126.9816
G0 F7500 X70.019 Y105.092
G1 F1500 X103.802 Y138.875 E129.36517
G0 F7500 X104.368 Y138.875
G1 F1500 X70.019 Y104.526 E131.78868
G0 F7500 X70.019 Y103.96
G1 F1500 X104.933 Y138.875 E134.25209
G0 F7500 X105.499 Y138.875
G1 F1500 X70.019 Y103.395 E136.75539
G0 F7500 X70.019 Y102.829
G1 F1500 X106.065 Y138.875 E139.29863
G0 F7500 X106.63 Y138.875
G1 F1500 X70.019 Y102.263 E141.88177
G0 F7500 X70.019 Y101.698
G1 F1500 X107.196 Y138.875 E144.50481
G0 F7500 X107.762 Y138.875
G1 F1500 X70.019 Y101.132 E147.16778
G0 F7500 X70.019 Y100.566
G1 F1500 X108.328 Y138.875 E149.87069
G0 F7500 X108.893 Y138.875
G1 F1500 X70.019 Y100.001 E152.61346
G0 F7500 X70.019 Y99.435
G1 F1500 X109.459 Y138.875 E155.39616
G0 F7500 X110.025 Y138.875
G1 F1500 X70.019 Y98.869 E158.2188
G0 F7500 X70.019 Y98.304
G1 F1500 X110.59 Y138.875 E161.08131
G0 F7500 X111.156 Y138.875
G1 F1500 X70.019 Y97.738 E163.98374
G0 F7500 X70.019 Y97.172
G1 F1500 X111.722 Y138.875 E166.92612
G0 F7500 X112.287 Y138.875
G1 F1500 X70.019 Y96.607 E169.90835
G0 F7500 X70.019 Y96.041
G1 F1500 X112.853 Y138.875 E172.93052
G0 F7500 X113.419 Y138.875
G1 F1500 X70.019 Y95.475 E175.99263
G0 F7500 X70.019 Y94.909
G1 F1500 X113.984 Y138.875 E179.09463
G0 F7500 X114.55 Y138.875
G1 F1500 X70.019 Y94.344 E182.23653
G0 F7500 X70.019 Y93.778
G1 F1500 X115.116 Y138.875 E185.41837
G0 F7500 X115.681 Y138.875
G1 F1500 X70.019 Y93.212 E188.6401
G0 F7500 X70.019 Y92.647
G1 F1500 X116.247 Y138.875 E191.90174
G0 F7500 X116.813 Y138.875
G1 F1500 X70.019 Y92.081 E195.20331
G0 F7500 X70.019 Y91.515
G1 F1500 X117.379 Y138.875 E198.54481
G0 F7500 X117.944 Y138.875
G1 F1500 X70.019 Y90.95 E201.92618
G0 F7500 X70.019 Y90.384
G1 F1500 X118.51 Y138.875 E205.34748
G0 F7500 X119.076 Y138.875
G1 F1500 X70.019 Y89.818 E208.80872
G0 F7500 X70.019 Y89.253
G1 F1500 X119.641 Y138.875 E212.30982
G0 F7500 X120.207 Y138.875
G1 F1500 X70.019 Y88.687 E215.85085
G0 F7500 X70.019 Y88.121
G1 F1500 X120.773 Y138.875 E219.43182
G0 F7500 X121.338 Y138.875
G1 F1500 X70.019 Y87.556 E223.05265
G0 F7500 X70.019 Y86.99
G1 F1500 X121.904 Y138.875 E226.71342
G0 F7500 X122.47 Y138.875
G1 F1500 X70.019 Y86.424 E230.41412
G0 F7500 X70.019 Y85.859
G1 F1500 X123.035 Y138.875 E234.15469
G0 F7500 X123.602 Y138.875
G1 F1500 X70.019 Y85.293 E237.93522
G0 F7500 X70.019 Y84.727
G1 F1500 X124.167 Y138.875 E241.75566
G0 F7500 X124.733 Y138.875
G1 F1500 X70.019 Y84.161 E245.61603
G0 F7500 X70.019 Y83.596
G1 F1500 X125.299 Y138.875 E249.51629
G0 F7500 X125.865 Y138.875
G1 F1500 X70.019 Y83.03 E253.45649
G0 F7500 X70.019 Y82.464
G1 F1500 X126.43 Y138.875 E257.43659
G0 F7500 X126.996 Y138.875
G1 F1500 X70.019 Y81.899 E261.45659
G0 F7500 X70.019 Y81.333
G1 F1500 X127.562 Y138.875 E265.51653
G0 F7500 X128.127 Y138.875
G1 F1500 X70.375 Y81.123 E269.59124
G0 F7500 X70.941 Y81.123
G1 F1500 X128.693 Y138.875 E273.66596
G0 F7500 X129.259 Y138.875
G1 F1500 X71.506 Y81.123 E277.74071
G0 F7500 X72.072 Y81.123
G1 F1500 X129.824 Y138.875 E281.81543
G0 F7500 X130.39 Y138.875
G1 F1500 X72.638 Y81.123 E285.89014
G0 F7500 X73.203 Y81.123
G1 F1500 X130.956 Y138.875 E289.96489
G0 F7500 X131.521 Y138.875
G1 F1500 X73.769 Y81.123 E294.03961
G0 F7500 X74.335 Y81.123
G1 F1500 X132.087 Y138.875 E298.11432
G0 F7500 X132.653 Y138.875
G1 F1500 X74.9 Y81.123 E302.18907
G0 F7500 X75.466 Y81.123
G1 F1500 X133.218 Y138.875 E306.26379
G0 F7500 X133.784 Y138.875
G1 F1500 X76.032 Y81.123 E310.33851
G0 F7500 X76.598 Y81.123
G1 F1500 X134.35 Y138.875 E314.41322
G0 F7500 X134.915 Y138.875
G1 F1500 X77.163 Y81.123 E318.48794
G0 F7500 X77.729 Y81.123
G1 F1500 X135.481 Y138.875 E322.56265
G0 F7500 X136.047 Y138.875
G1 F1500 X78.295 Y81.123 E326.63737
G0 F7500 X78.86 Y81.123
G1 F1500 X136.613 Y138.875 E330.71212
G0 F7500 X137.178 Y138.875
G1 F1500 X79.426 Y81.123 E334.78683
G0 F7500 X79.992 Y81.123
G1 F1500 X137.744 Y138.875 E338.86155
G0 F7500 X138.31 Y138.875
G1 F1500 X80.557 Y81.123 E342.9363
G0 F7500 X81.123 Y81.123
G1 F1500 X138.875 Y138.875 E347.01102
G0 F7500 X139.441 Y138.875
G1 F1500 X81.689 Y81.123 E351.08573
G0 F7500 X82.254 Y81.123
G1 F1500 X140.007 Y138.875 E355.16048
G0 F7500 X140.572 Y138.875
G1 F1500 X82.82 Y81.123 E359.2352
G0 F7500 X83.386 Y81.123
G1 F1500 X141.138 Y138.875 E363.30991
G0 F7500 X141.704 Y138.875
G1 F1500 X83.951 Y81.123 E367.38466
G0 F7500 X84.517 Y81.123
G1 F1500 X142.269 Y138.875 E371.45938
G0 F7500 X142.835 Y138.875
G1 F1500 X85.083 Y81.123 E375.53409
G0 F7500 X85.649 Y81.123
G1 F1500 X143.401 Y138.875 E379.60881
G0 F7500 X143.966 Y138.875
G1 F1500 X86.214 Y81.123 E383.68353
G0 F7500 X86.78 Y81.123
G1 F1500 X144.532 Y138.875 E387.75824
G0 F7500 X145.098 Y138.875
G1 F1500 X87.346 Y81.123 E391.83296
G0 F7500 X87.911 Y81.123
G1 F1500 X145.663 Y138.875 E395.90767
G0 F7500 X146.229 Y138.875
G1 F1500 X88.477 Y81.123 E399.98239
G0 F7500 X89.043 Y81.123
G1 F1500 X146.795 Y138.875 E404.0571
G0 F7500 X147.361 Y138.875
G1 F1500 X89.608 Y81.123 E408.13185
G0 F7500 X90.174 Y81.123
G1 F1500 X147.926 Y138.875 E412.20657
G0 F7500 X148.492 Y138.875
G1 F1500 X90.74 Y81.123 E416.28129
G0 F7500 X91.305 Y81.123
G1 F1500 X149.058 Y138.875 E420.35604
G0 F7500 X149.623 Y138.875
G1 F1500 X91.871 Y81.123 E424.43075
G0 F7500 X92.437 Y81.123
G1 F1500 X149.979 Y138.665 E428.49065
G0 F7500 X149.979 Y138.1
G1 F1500 X93.002 Y81.123 E432.51069
G0 F7500 X93.568 Y81.123
G1 F1500 X149.979 Y137.534 E436.49079
G0 F7500 X149.979 Y136.968
G1 F1500 X94.134 Y81.123 E440.43095
G0 F7500 X94.699 Y81.123
G1 F1500 X149.979 Y136.403 E444.33126
G0 F7500 X149.979 Y135.837
G1 F1500 X95.265 Y81.123 E448.19162
G0 F7500 X95.831 Y81.123
G1 F1500 X149.979 Y135.271 E452.01206
G0 F7500 X149.979 Y134.705
G1 F1500 X96.397 Y81.123 E455.79256
G0 F7500 X96.962 Y81.123
G1 F1500 X149.979 Y134.14 E459.53319
G0 F7500 X149.979 Y133.574
G1 F1500 X97.528 Y81.123 E463.23389
G0 F7500 X98.094 Y81.123
G1 F1500 X149.979 Y133.008 E466.89466
G0 F7500 X149.979 Y132.443
G1 F1500 X98.659 Y81.123 E470.51556
G0 F7500 X99.225 Y81.123
G1 F1500 X149.979 Y131.877 E474.09653
G0 F7500 X149.979 Y131.311
G1 F1500 X99.791 Y81.123 E477.63757
G0 F7500 X100.356 Y81.123
G1 F1500 X149.979 Y130.746 E481.13874
G0 F7500 X149.979 Y130.18
G1 F1500 X100.922 Y81.123 E484.59997
G0 F7500 X101.488 Y81.123
G1 F1500 X149.979 Y129.614 E488.02128
G0 F7500 X149.979 Y129.049
G1 F1500 X102.053 Y81.123 E491.40271
G0 F7500 X102.619 Y81.123
G1 F1500 X149.979 Y128.483 E494.74422
G0 F7500 X149.979 Y127.917
G1 F1500 X103.185 Y81.123 E498.04579
G0 F7500 X103.75 Y81.123
G1 F1500 X149.979 Y127.352 E501.30749
G0 F7500 X149.979 Y126.786
G1 F1500 X104.316 Y81.123 E504.52926
G0 F7500 X104.882 Y81.123
G1 F1500 X149.979 Y126.22 E507.7111
G0 F7500 X149.979 Y125.654
G1 F1500 X105.448 Y81.123 E510.853
G0 F7500 X106.013 Y81.123
G1 F1500 X149.979 Y125.089 E513.95504
G0 F7500 X149.979 Y124.523
G1 F1500 X106.579 Y81.123 E517.01715
G0 F7500 X107.145 Y81.123
G1 F1500 X149.979 Y123.957 E520.03932
G0 F7500 X149.979 Y123.392
G1 F1500 X107.71 Y81.123 E523.02162
G0 F7500 X108.276 Y81.123
G1 F1500 X149.979 Y122.826 E525.964
G0 F7500 X149.979 Y122.26
G1 F1500 X108.842 Y81.123 E528.86643
G0 F7500 X109.407 Y81.123
G1 F1500 X149.979 Y121.695 E531.72901
G0 F7500 X149.979 Y121.129
G1 F1500 X109.973 Y81.123 E534.55165
G0 F7500 X110.539 Y81.124
G1 F1500 X149.979 Y120.563 E537.33432
G0 F7500 X149.979 Y119.998
G1 F1500 X111.105 Y81.124 E540.07709
G0 F7500 X111.671 Y81.124
G1 F1500 X149.979 Y119.432 E542.77992
G0 F7500 X149.979 Y118.866
G1 F1500 X112.236 Y81.124 E545.44286
G0 F7500 X112.802 Y81.124
G1 F1500 X149.979 Y118.301 E548.0659
G0 F7500 X149.979 Y117.735
G1 F1500 X113.368 Y81.124 E550.649
G0 F7500 X113.933 Y81.124
G1 F1500 X149.979 Y117.169 E553.19221
G0 F7500 X149.979 Y116.604
G1 F1500 X114.499 Y81.124 E555.69551
G0 F7500 X115.065 Y81.124
G1 F1500 X149.979 Y116.038 E558.15888
G0 F7500 X149.979 Y115.472
G1 F1500 X115.631 Y81.124 E560.58232
G0 F7500 X116.196 Y81.124
G1 F1500 X149.979 Y114.906 E562.96586
G0 F7500 X149.979 Y114.341
G1 F1500 X116.762 Y81.124 E565.3095
G0 F7500 X117.328 Y81.124
G1 F1500 X149.979 Y113.775 E567.6132
G0 F7500 X149.979 Y113.209
G1 F1500 X117.893 Y81.124 E569.87701
G0 F7500 X118.459 Y81.124
G1 F1500 X149.979 Y112.644 E572.10091
G0 F7500 X149.979 Y112.078
G1 F1500 X119.025 Y81.124 E574.28489
G0 F7500 X119.59 Y81.124
G1 F1500 X149.979 Y111.512 E576.42896
G0 F7500 X149.979 Y110.947
G1 F1500 X120.156 Y81.124 E578.53313
G0 F7500 X120.722 Y81.124
G1 F1500 X149.979 Y110.381 E580.59737
G0 F7500 X149.978 Y109.815
G1 F1500 X121.287 Y81.124 E582.62168
G0 F7500 X121.853 Y81.124
G1 F1500 X149.978 Y109.249 E584.60605
G0 F7500 X149.978 Y108.683
G1 F1500 X122.419 Y81.124 E586.55048
G0 F7500 X122.984 Y81.124
G1 F1500 X149.978 Y108.118 E588.45506
G0 F7500 X149.978 Y107.552
G1 F1500 X123.55 Y81.124 E590.31969
G0 F7500 X124.116 Y81.124
G1 F1500 X149.978 Y106.986 E592.1444
G0 F7500 X149.978 Y106.42
G1 F1500 X124.682 Y81.124 E593.92917
