;FLAVOR:Marlin
;TIME:11624
;Filament used: 6.46996m
;Layer height: 0.2
;MINX:66.76
;MINY:77.876
;MINZ:0.3
;MAXX:153.24
;MAXY:142.124
;MAXZ:14.5
;Generated with Cura_SteamEngine 4.13.1
M140 S60
M105
M190 S60
M104 S195
M105
M109 S195
M82 ;absolute extrusion mode
G28 ;Home
G1 Z15.0 F2000 ;Move the platform
G92 E0
G92 E0
G1 F2700 E-6.5
;LAYER_COUNT:72
;LAYER:0
M107
M204 S1000
G0 F7500 X68.615 Y78.985 Z0.3
;TYPE:SKIRT
G1 F2700 E0
G1 F1500 X68.794 Y78.854 E0.01107
G1 X69.363 Y78.521 E0.04396
G1 X69.513 Y78.453 E0.05217
G1 X70.094 Y78.255 E0.0828
G1 X70.317 Y78.202 E0.09423
G1 X70.957 Y78.117 E0.12644
G1 X71.344 Y78.106 E0.14576
G1 X148.289 Y78.105 E3.98456
G1 X148.99 Y78.115 E4.01954
G1 X149.525 Y78.168 E4.04636
G1 X149.617 Y78.185 E4.05103
G1 X150.124 Y78.323 E4.07724
G1 X150.409 Y78.426 E4.09236
G1 X150.869 Y78.634 E4.11755
G1 X151.195 Y78.841 E4.13681
G1 X151.35 Y78.953 E4.14635
G1 X151.735 Y79.281 E4.17159
G1 X151.962 Y79.532 E4.18847
G1 X152.133 Y79.743 E4.20202
G1 X152.419 Y80.16 E4.22725
G1 X152.567 Y80.448 E4.2434
G1 X152.672 Y80.682 E4.2562
G1 X152.841 Y81.158 E4.2814
G1 X152.929 Y81.609 E4.30432
G1 X152.969 Y81.941 E4.32101
G1 X152.991 Y82.245 E4.33621
G1 X153 Y82.647 E4.35627
G1 X153.001 Y137.088 E7.07235
G1 X152.991 Y137.784 E7.10707
G1 X152.974 Y138.071 E7.12142
G1 X152.952 Y138.281 E7.13195
G1 X152.859 Y138.778 E7.15718
G1 X152.782 Y139.025 E7.17008
G1 X152.713 Y139.218 E7.18031
G1 X152.4 Y139.858 E7.21585
G1 X152.262 Y140.075 E7.22868
G1 X151.964 Y140.472 E7.25345
G1 X151.898 Y140.547 E7.25843
G1 X151.386 Y141.015 E7.29304
G1 X151.207 Y141.146 E7.30411
G1 X150.631 Y141.482 E7.33737
G1 X150.48 Y141.55 E7.34564
G1 X149.906 Y141.745 E7.37588
G1 X149.683 Y141.798 E7.38732
G1 X149.043 Y141.883 E7.41953
G1 X148.656 Y141.894 E7.43884
G1 X71.714 Y141.894 E11.27749
G1 X71.059 Y141.885 E11.31018
G1 X70.5 Y141.828 E11.33821
G1 X70.255 Y141.781 E11.35065
G1 X69.768 Y141.647 E11.37585
G1 X69.298 Y141.432 E11.40164
G1 X68.963 Y141.245 E11.42078
G1 X68.543 Y140.965 E11.44596
G1 X68.042 Y140.472 E11.48103
G1 X67.871 Y140.262 E11.49454
G1 X67.583 Y139.846 E11.51978
G1 X67.443 Y139.573 E11.53509
G1 X67.345 Y139.359 E11.54683
G1 X67.193 Y138.959 E11.56818
G1 X67.186 Y138.936 E11.56938
G1 X67.071 Y138.392 E11.59712
G1 X67.032 Y138.073 E11.61316
G1 X67.009 Y137.772 E11.62822
G1 X67.001 Y137.427 E11.64543
G1 X66.999 Y82.912 E14.3652
G1 X67.009 Y82.216 E14.39992
G1 X67.026 Y81.932 E14.41412
G1 X67.048 Y81.72 E14.42475
G1 X67.208 Y81.002 E14.46145
G1 X67.277 Y80.803 E14.47196
G1 X67.479 Y80.34 E14.49716
G1 X67.621 Y80.101 E14.51103
G1 X67.753 Y79.899 E14.52307
G1 X68.042 Y79.521 E14.54681
G1 X68.115 Y79.439 E14.55229
G1 X68.615 Y78.985 E14.58598
G1 F2700 E8.08598
;MESH:arduino_uno_lcd_orig-top.stl
G0 F7500 X113.319 Y100.365
G0 X113.319 Y98.93
G0 X142.228 Y99.272
G0 X142.4 Y114.3
;TYPE:WALL-INNER
G1 F2700 E14.58598
G1 F1500 X142.4 Y99.1 E15.34431
G1 X77.2 Y99.1 E18.59715
G1 X77.2 Y114.3 E19.35548
G1 X142.4 Y114.3 E22.60832
G0 F7500 X142 Y113.9
;TYPE:WALL-OUTER
G1 F1500 X142 Y99.5 E23.32674
G1 X77.6 Y99.5 E26.53967
G1 X77.6 Y113.9 E27.25809
G1 X142 Y113.9 E30.47102
G0 F7500 X142 Y113.7
G0 X142.44 Y113.7
G1 F2700 E23.97102
G0 F7500 X142.228 Y114.128
G0 X81.795 Y114.49
G0 X81.795 Y113.035
G0 X80.937 Y130.406
G0 X81.222 Y128.972
G0 X82.736 Y130.164
G0 X83.12 Y130.632
G0 X83.406 Y131.167
G0 X83.582 Y131.748
G0 X83.642 Y132.35
G0 X83.582 Y132.952
G0 X83.406 Y133.533
G0 X83.12 Y134.068
G0 X82.903 Y134.332
G0 X81.795 Y135.355
;TYPE:WALL-INNER
G1 F2700 E30.47102
G1 F1500 X82.357 Y135.054 E30.50283
G1 X82.85 Y134.65 E30.53463
G1 X83.254 Y134.157 E30.56643
G1 X83.555 Y133.595 E30.59823
G1 X83.74 Y132.984 E30.63008
G1 X83.803 Y132.35 E30.66187
G1 X83.74 Y131.716 E30.69365
G1 X83.555 Y131.105 E30.7255
G1 X83.254 Y130.543 E30.75731
G1 X82.85 Y130.05 E30.78911
G1 X82.357 Y129.646 E30.82091
G1 X81.795 Y129.345 E30.85272
G1 X81.184 Y129.16 E30.88457
G1 X80.55 Y129.097 E30.91635
G1 X79.916 Y129.16 E30.94814
G1 X79.305 Y129.345 E30.97999
G1 X78.743 Y129.646 E31.01179
G1 X78.25 Y130.05 E31.04359
G1 X77.846 Y130.543 E31.07539
G1 X77.545 Y131.105 E31.1072
G1 X77.36 Y131.716 E31.13905
G1 X77.297 Y132.35 E31.17084
G1 X77.36 Y132.984 E31.20262
G1 X77.545 Y133.595 E31.23447
G1 X77.846 Y134.157 E31.26628
G1 X78.25 Y134.65 E31.29808
G1 X78.743 Y135.054 E31.32988
G1 X79.305 Y135.355 E31.36168
G1 X79.916 Y135.54 E31.39353
G1 X80.55 Y135.603 E31.42532
G1 X81.184 Y135.54 E31.4571
G1 X81.795 Y135.355 E31.48895
G0 F7500 X81.641 Y134.984
;TYPE:WALL-OUTER
G1 F1500 X82.134 Y134.72 E31.51685
G1 X82.566 Y134.366 E31.54472
G1 X82.92 Y133.934 E31.57258
G1 X83.184 Y133.441 E31.60048
G1 X83.346 Y132.906 E31.62837
G1 X83.401 Y132.35 E31.65625
G1 X83.346 Y131.794 E31.68412
G1 X83.184 Y131.259 E31.71201
G1 X82.92 Y130.766 E31.73991
G1 X82.566 Y130.334 E31.76777
G1 X82.134 Y129.98 E31.79564
G1 X81.641 Y129.716 E31.82354
G1 X81.106 Y129.554 E31.85143
G1 X80.55 Y129.499 E31.8793
G1 X79.994 Y129.554 E31.90718
G1 X79.459 Y129.716 E31.93506
G1 X78.966 Y129.98 E31.96296
G1 X78.534 Y130.334 E31.99083
G1 X78.18 Y130.766 E32.01869
G1 X77.916 Y131.259 E32.04659
G1 X77.754 Y131.794 E32.07448
G1 X77.699 Y132.35 E32.10236
G1 X77.754 Y132.906 E32.13023
G1 X77.916 Y133.441 E32.15812
G1 X78.18 Y133.934 E32.18602
G1 X78.534 Y134.366 E32.21388
G1 X78.966 Y134.72 E32.24175
G1 X79.459 Y134.984 E32.26965
G1 X79.994 Y135.146 E32.29754
G1 X80.55 Y135.201 E32.32541
G1 X81.106 Y135.146 E32.35328
G1 X81.641 Y134.984 E32.38117
G0 F7500 X81.817 Y134.89
G0 X82.023 Y135.278
G1 F2700 E25.88117
G0 F7500 X82.644 Y134.592
G0 X83.928 Y133.022
G0 X86.568 Y133.031
G0 X88.032 Y131.78
G0 X88.334 Y131.619
G0 X90.384 Y130.84
;TYPE:WALL-INNER
G1 F2700 E32.38117
G1 F1500 X90.995 Y130.655 E32.41302
G1 X91.557 Y130.354 E32.44483
G1 X92.05 Y129.95 E32.47663
G1 X92.454 Y129.457 E32.50843
G1 X92.755 Y128.895 E32.54023
G1 X92.94 Y128.284 E32.57208
G1 X93.003 Y127.65 E32.60387
G1 X92.94 Y127.016 E32.63566
G1 X92.755 Y126.405 E32.66751
G1 X92.454 Y125.843 E32.69931
G1 X92.05 Y125.35 E32.73111
G1 X91.557 Y124.946 E32.76291
G1 X90.995 Y124.645 E32.79472
G1 X90.384 Y124.46 E32.82657
G1 X89.75 Y124.397 E32.85835
G1 X89.116 Y124.46 E32.89014
G1 X88.505 Y124.645 E32.92199
G1 X87.943 Y124.946 E32.9538
G1 X87.45 Y125.35 E32.9856
G1 X87.046 Y125.843 E33.01739
G1 X86.745 Y126.405 E33.0492
G1 X86.56 Y127.016 E33.08105
G1 X86.497 Y127.65 E33.11284
G1 X86.56 Y128.284 E33.14462
G1 X86.745 Y128.895 E33.17647
G1 X87.046 Y129.457 E33.20828
G1 X87.45 Y129.95 E33.24008
G1 X87.943 Y130.354 E33.27188
G1 X88.505 Y130.655 E33.30368
G1 X89.116 Y130.84 E33.33553
G1 X89.75 Y130.903 E33.36732
G1 X90.384 Y130.84 E33.39911
G0 F7500 X90.306 Y130.446
;TYPE:WALL-OUTER
G1 F1500 X90.841 Y130.284 E33.42699
G1 X91.334 Y130.02 E33.4549
G1 X91.766 Y129.666 E33.48276
G1 X92.12 Y129.234 E33.51062
G1 X92.384 Y128.741 E33.53852
G1 X92.546 Y128.206 E33.56641
G1 X92.601 Y127.65 E33.59429
G1 X92.546 Y127.094 E33.62216
G1 X92.384 Y126.559 E33.65005
G1 X92.12 Y126.066 E33.67795
G1 X91.766 Y125.634 E33.70581
G1 X91.334 Y125.28 E33.73368
G1 X90.841 Y125.016 E33.76158
G1 X90.306 Y124.854 E33.78947
G1 X89.75 Y124.799 E33.81734
G1 X89.194 Y124.854 E33.84522
G1 X88.659 Y125.016 E33.8731
G1 X88.166 Y125.28 E33.901
G1 X87.734 Y125.634 E33.92887
G1 X87.38 Y126.066 E33.95673
G1 X87.116 Y126.559 E33.98463
G1 X86.954 Y127.094 E34.01252
G1 X86.899 Y127.65 E34.0404
G1 X86.954 Y128.206 E34.06827
G1 X87.116 Y128.741 E34.09616
G1 X87.38 Y129.234 E34.12406
G1 X87.734 Y129.666 E34.15192
G1 X88.166 Y130.02 E34.17979
G1 X88.659 Y130.284 E34.20769
G1 X89.194 Y130.446 E34.23558
G1 X89.75 Y130.501 E34.26345
G1 X90.306 Y130.446 E34.29132
G0 F7500 X90.497 Y130.388
G0 X90.624 Y130.81
G0 X91.936 Y132.164
G0 X92.32 Y132.632
G0 X92.606 Y133.167
G0 X92.782 Y133.748
G0 X92.842 Y134.35
G0 X92.782 Y134.952
G0 X92.606 Y135.533
G0 X92.32 Y136.068
G0 X91.936 Y136.536
G0 X91.672 Y136.753
G0 X90.384 Y137.54
;TYPE:WALL-INNER
G1 F1500 X90.995 Y137.355 E34.32317
G1 X91.557 Y137.054 E34.35498
G1 X92.05 Y136.65 E34.38678
G1 X92.454 Y136.157 E34.41858
G1 X92.755 Y135.595 E34.45039
G1 X92.94 Y134.984 E34.48224
G1 X93.003 Y134.35 E34.51402
G1 X92.94 Y133.716 E34.54581
G1 X92.755 Y133.105 E34.57766
G1 X92.454 Y132.543 E34.60946
G1 X92.05 Y132.05 E34.64126
G1 X91.557 Y131.646 E34.67306
G1 X90.995 Y131.345 E34.70487
G1 X90.384 Y131.16 E34.73672
G1 X89.75 Y131.097 E34.75713
G1 X89.116 Y131.16 E34.77765
G1 X88.505 Y131.345 E34.8095
G1 X87.943 Y131.646 E34.84131
G1 X87.45 Y132.05 E34.87311
G1 X87.046 Y132.543 E34.90491
G1 X86.745 Y133.105 E34.93672
G1 X86.56 Y133.716 E34.96857
G1 X86.497 Y134.35 E35.00035
G1 X86.56 Y134.984 E35.03214
G1 X86.745 Y135.595 E35.06399
G1 X87.046 Y136.157 E35.09579
G1 X87.45 Y136.65 E35.12759
G1 X87.943 Y137.054 E35.15939
G1 X88.505 Y137.355 E35.1912
G1 X89.116 Y137.54 E35.22305
G1 X89.75 Y137.603 E35.25484
G1 X90.384 Y137.54 E35.28662
G0 F7500 X90.306 Y137.146
;TYPE:WALL-OUTER
G1 F1500 X90.841 Y136.984 E35.31451
G1 X91.334 Y136.72 E35.34241
G1 X91.766 Y136.366 E35.37027
G1 X92.12 Y135.934 E35.39814
G1 X92.384 Y135.441 E35.42604
G1 X92.546 Y134.906 E35.45393
G1 X92.601 Y134.35 E35.4818
G1 X92.546 Y133.794 E35.50968
G1 X92.384 Y133.259 E35.53756
G1 X92.12 Y132.766 E35.56546
G1 X91.766 Y132.334 E35.59333
G1 X91.334 Y131.98 E35.62119
G1 X90.841 Y131.716 E35.64909
G1 X90.306 Y131.554 E35.67698
G1 X89.75 Y131.499 E35.70486
G1 X89.194 Y131.554 E35.73273
G1 X88.659 Y131.716 E35.76062
G1 X88.166 Y131.98 E35.78852
G1 X87.734 Y132.334 E35.81638
G1 X87.38 Y132.766 E35.84425
G1 X87.116 Y133.259 E35.87215
G1 X86.954 Y133.794 E35.90004
G1 X86.899 Y134.35 E35.92791
G1 X86.954 Y134.906 E35.95579
G1 X87.116 Y135.441 E35.98367
G1 X87.38 Y135.934 E36.01157
G1 X87.734 Y136.366 E36.03944
G1 X88.166 Y136.72 E36.0673
G1 X88.659 Y136.984 E36.0952
G1 X89.194 Y137.146 E36.12309
G1 X89.75 Y137.201 E36.15097
G1 X90.306 Y137.146 E36.17884
G0 F7500 X90.497 Y137.088
G0 X90.624 Y137.51
G1 F2700 E29.67884
G0 F7500 X89.296 Y137.395
G0 X87.315 Y136.785
G0 X87.313 Y137.904
G0 X71.134 Y138.094
;TYPE:WALL-INNER
G1 F2700 E36.17884
G1 F1500 X70.983 Y138.046 E36.18674
G1 X70.878 Y137.953 E36.19374
G1 X70.8 Y137.72 E36.206
G1 X70.799 Y82.304 E38.97072
G1 X70.84 Y82.111 E38.98056
G1 X70.921 Y81.997 E38.98754
G1 X71.113 Y81.905 E38.99816
G1 X148.866 Y81.905 E42.87727
G1 X149.018 Y81.954 E42.88524
G1 X149.122 Y82.047 E42.8922
G1 X149.2 Y82.28 E42.90446
G1 X149.201 Y137.693 E45.66902
G1 X149.16 Y137.889 E45.67901
G1 X149.078 Y138.003 E45.68602
G1 X148.887 Y138.095 E45.6966
G1 X71.134 Y138.094 E49.57571
G0 F7500 X71.073 Y138.494
;TYPE:WALL-OUTER
G1 F1500 X70.78 Y138.401 E49.59105
G1 X70.549 Y138.197 E49.60642
G1 X70.417 Y137.909 E49.62223
G1 X70.4 Y137.74 E49.6307
G1 X70.399 Y82.265 E52.39836
G1 X70.466 Y81.946 E52.41462
G1 X70.647 Y81.693 E52.43014
G1 X70.922 Y81.537 E52.44592
G1 X71.07 Y81.505 E52.45347
G1 X148.93 Y81.505 E56.33792
G1 X149.22 Y81.599 E56.35313
G1 X149.451 Y81.803 E56.36851
G1 X149.583 Y82.091 E56.38431
G1 X149.6 Y82.26 E56.39279
G1 X149.601 Y137.735 E59.16045
G1 X149.535 Y138.054 E59.1767
G1 X149.353 Y138.307 E59.19225
G1 X149.078 Y138.463 E59.20802
G1 X148.93 Y138.495 E59.21557
G1 X71.073 Y138.494 E63.09988
G0 F7500 X70.883 Y138.434
G0 X71.017 Y138.015
G0 X71.206 Y137.704
;TYPE:SKIN
G1 F1500 X71.19 Y137.656 E63.1024
G1 X71.189 Y82.348 E65.86173
G1 X71.2 Y82.295 E65.86443
G1 X148.794 Y82.295 E69.73561
G1 X148.81 Y82.343 E69.73813
G1 X148.811 Y137.65 E72.49741
G1 X148.799 Y137.705 E72.50022
G1 X91.169 Y137.704 E75.37539
G1 X91.775 Y137.38 E75.40967
G1 X92.327 Y136.927 E75.4453
G1 X92.78 Y136.375 E75.48093
G1 X93.117 Y135.745 E75.51657
G1 X93.324 Y135.06 E75.55227
G1 X93.395 Y134.35 E75.58787
G1 X93.324 Y133.64 E75.62347
G1 X93.117 Y132.955 E75.65917
G1 X92.78 Y132.325 E75.69482
G1 X92.327 Y131.773 E75.73044
G1 X91.775 Y131.32 E75.76607
G1 X91.177 Y131 E75.7999
G1 X91.775 Y130.68 E75.83374
G1 X92.327 Y130.227 E75.86937
G1 X92.78 Y129.675 E75.90499
G1 X93.117 Y129.045 E75.94064
G1 X93.324 Y128.36 E75.97634
G1 X93.395 Y127.65 E76.01194
G1 X93.324 Y126.94 E76.04754
G1 X93.117 Y126.255 E76.08324
G1 X92.78 Y125.625 E76.11888
G1 X92.327 Y125.073 E76.15451
G1 X91.775 Y124.62 E76.19013
G1 X91.145 Y124.283 E76.22578
G1 X90.46 Y124.076 E76.26148
G1 X89.75 Y124.005 E76.29708
G1 X89.04 Y124.076 E76.33268
G1 X88.355 Y124.283 E76.36838
G1 X87.725 Y124.62 E76.40402
G1 X87.173 Y125.073 E76.43965
G1 X86.72 Y125.625 E76.47528
G1 X86.383 Y126.255 E76.51092
G1 X86.176 Y126.94 E76.54662
G1 X86.105 Y127.65 E76.58222
G1 X86.176 Y128.36 E76.61782
G1 X86.383 Y129.045 E76.65352
G1 X86.72 Y129.675 E76.68917
G1 X87.173 Y130.227 E76.72479
G1 X87.725 Y130.68 E76.76042
G1 X88.323 Y131 E76.79425
G1 X87.725 Y131.32 E76.82809
G1 X87.173 Y131.773 E76.86372
G1 X86.72 Y132.325 E76.89934
G1 X86.383 Y132.955 E76.93499
G1 X86.176 Y133.64 E76.97069
G1 X86.105 Y134.35 E77.00629
G1 X86.176 Y135.06 E77.04189
G1 X86.383 Y135.745 E77.07759
G1 X86.72 Y136.375 E77.11323
G1 X87.173 Y136.927 E77.14886
G1 X87.725 Y137.38 E77.18448
G1 X88.331 Y137.704 E77.21877
G1 X71.206 Y137.704 E78.07314
G1 F2700 E71.57314
G0 F7500 X71.205 Y137.984
G0 X77.753 Y137.904
G0 X78.637 Y135.213
G0 X77.755 Y134.219
G1 F2700 E78.07314
G0 F7500 X77.52 Y134.375
G1 F1500 X77.973 Y134.927 E78.10876
G1 X78.525 Y135.38 E78.14439
G1 X79.155 Y135.717 E78.18003
G1 X79.84 Y135.924 E78.21573
G1 X80.55 Y135.995 E78.25133
G1 X81.26 Y135.924 E78.28693
G1 X81.945 Y135.717 E78.32263
G1 X82.575 Y135.38 E78.35828
G1 X83.127 Y134.927 E78.3939
G1 X83.58 Y134.375 E78.42953
G1 X83.917 Y133.745 E78.46517
G1 X84.124 Y133.06 E78.50088
G1 X84.195 Y132.35 E78.53647
G1 X84.124 Y131.64 E78.57207
G1 X83.917 Y130.955 E78.60777
G1 X83.58 Y130.325 E78.64342
G1 X83.127 Y129.773 E78.67904
G1 X82.575 Y129.32 E78.71467
G1 X81.945 Y128.983 E78.75032
G1 X81.26 Y128.776 E78.78602
G1 X80.55 Y128.705 E78.82162
G1 X79.84 Y128.776 E78.85721
G1 X79.155 Y128.983 E78.89292
G1 X78.525 Y129.32 E78.92856
G1 X77.973 Y129.773 E78.96419
G1 X77.52 Y130.325 E78.99981
G1 X77.183 Y130.955 E79.03546
G1 X76.976 Y131.64 E79.07116
G1 X76.905 Y132.35 E79.10676
G1 X76.976 Y133.06 E79.14236
G1 X77.183 Y133.745 E79.17806
G1 X77.52 Y134.375 E79.2137
G1 F2700 E72.7137
G0 F7500 X77.755 Y134.219
G0 X77.458 Y132.35
G0 X77.518 Y131.748
G0 X77.66 Y131.279
G0 X78.637 Y129.487
G0 X79.45 Y130.701
G0 X78.637 Y113.035
G0 X78.637 Y114.49
G0 X77.09 Y114.44
G1 F2700 E79.2137
G0 F7500 X76.81 Y114.69
G1 F1500 X142.79 Y114.69 E82.50546
G1 X142.79 Y98.71 E83.3027
G1 X76.81 Y98.71 E86.59446
G1 X76.81 Y114.69 E87.3917
G1 F2700 E80.8917
G0 F7500 X77.09 Y114.44
G0 X77.03 Y112.373
G0 X78.465 Y112.373
G0 X77.002 Y139.36
G0 X77.002 Y137.904
G0 X71.923 Y137.984
G1 F2700 E87.3917
G0 F7500 X71.924 Y137.543
G1 F1500 X71.349 Y136.968 E87.43227
G0 F7500 X71.349 Y136.403
G1 F1500 X72.489 Y137.543 E87.51271
G0 F7500 X73.055 Y137.543
G1 F1500 X71.349 Y135.837 E87.63307
G0 F7500 X71.349 Y135.271
G1 F1500 X73.621 Y137.543 E87.79338
G0 F7500 X74.186 Y137.543
G1 F1500 X71.349 Y134.705 E87.99358
G0 F7500 X71.349 Y134.14
G1 F1500 X74.752 Y137.543 E88.23368
G0 F7500 X75.318 Y137.543
G1 F1500 X71.349 Y133.574 E88.51371
G0 F7500 X71.349 Y133.008
G1 F1500 X75.883 Y137.543 E88.83364
G0 F7500 X76.449 Y137.543
G1 F1500 X71.349 Y132.443 E89.19348
G0 F7500 X71.349 Y131.877
G1 F1500 X77.015 Y137.543 E89.59324
G0 F7500 X77.58 Y137.543
G1 F1500 X71.349 Y131.311 E90.03291
G0 F7500 X71.349 Y130.746
G1 F1500 X78.146 Y137.543 E90.51247
G0 F7500 X78.712 Y137.543
G1 F1500 X71.349 Y130.18 E91.03197
G0 F7500 X71.349 Y129.614
G1 F1500 X79.277 Y137.543 E91.59137
G0 F7500 X79.843 Y137.543
G1 F1500 X71.349 Y129.049 E92.19067
G0 F7500 X71.349 Y128.483
G1 F1500 X77.645 Y134.78 E92.63492
G0 F7500 X78.119 Y135.253
G1 F1500 X80.409 Y137.543 E92.79649
G0 F7500 X80.975 Y137.543
G1 F1500 X79.384 Y135.953 E92.90871
G0 F7500 X80.108 Y136.11
G1 F1500 X81.54 Y137.543 E93.00978
G0 F7500 X82.106 Y137.543
G1 F1500 X80.703 Y136.14 E93.10877
G0 F7500 X81.216 Y136.088
G1 F1500 X82.672 Y137.543 E93.21147
G0 F7500 X83.237 Y137.543
G1 F1500 X81.663 Y135.968 E93.32256
G0 F7500 X82.084 Y135.824
